build/dist/assets/images/services/service5.svg

<svg width="44" height="44" viewBox="0 0 44 44" fill="none" xmlns="http://www.w3.org/2000/svg">
<g clip-path="url(#clip0_413_1904)">
<path d="M33 25.3846C34.8663 25.3846 36.3847 23.8663 36.3847 22C36.3847 20.1337 34.8663 18.6154 33 18.6154H31.3077V11.282H33C34.8663 11.282 36.3847 9.76362 36.3847 7.89731C36.3847 6.03101 34.8663 4.51284 33 4.51284H31.3077V0.846141C31.3077 0.378898 30.9289 0 30.4616 0H13.5384C13.0711 0 12.6923 0.378898 12.6923 0.846141V4.51275H11C9.1337 4.51275 7.61536 6.03109 7.61536 7.89748C7.61536 9.76379 9.1337 11.282 11 11.282H12.6923V18.6154H11C9.1337 18.6154 7.61536 20.1338 7.61536 22.0001C7.61536 23.8664 9.1337 25.3847 11 25.3847H12.6923V32.718H11C9.1337 32.718 7.61536 34.2364 7.61536 36.1028C7.61536 37.9691 9.1337 39.4873 11 39.4873H12.6923V43.154C12.6923 43.6213 13.0711 44.0002 13.5384 44.0002H30.4615C30.9288 44.0002 31.3076 43.6213 31.3076 43.154V39.4873H33C34.8663 39.4873 36.3847 37.969 36.3847 36.1027C36.3847 34.2364 34.8663 32.7179 33 32.7179H31.3077V25.3846H33V25.3846ZM11 9.58968C10.0669 9.58968 9.30772 8.83051 9.30772 7.8974C9.30772 6.96429 10.0669 6.20512 11 6.20512H13.5384C14.0058 6.20512 14.3846 5.82622 14.3846 5.35898V1.69228H29.6154V4.51275H27.0769C26.6096 4.51275 26.2308 4.89165 26.2308 5.35889C26.2308 5.82613 26.6096 6.20503 27.0769 6.20503H33C33.9331 6.20503 34.6923 6.96429 34.6923 7.8974C34.6923 8.83042 33.9331 9.58959 33 9.58959H30.4616C29.9943 9.58959 29.6154 9.96849 29.6154 10.4357V14.1023H14.3847V10.4357C14.3847 9.96849 14.0058 9.58959 13.5385 9.58959L11 9.58968ZM33 34.4102C33.9331 34.4102 34.6923 35.1695 34.6923 36.1026C34.6923 37.0356 33.9331 37.7948 33 37.7948H30.4616C29.9943 37.7948 29.6154 38.1737 29.6154 38.6409V42.3076H14.3847V38.6409C14.3847 38.1737 14.0058 37.7948 13.5385 37.7948H11C10.0669 37.7948 9.30772 37.0356 9.30772 36.1025C9.30772 35.1694 10.0669 34.4102 11 34.4102H13.5384C14.0058 34.4102 14.3846 34.0313 14.3846 33.5641V29.8975H29.6154V33.5641C29.6154 34.0313 29.9942 34.4102 30.4615 34.4102H33ZM30.4616 23.6923C29.9943 23.6923 29.6154 24.0712 29.6154 24.5384V28.205H14.3847V24.5384C14.3847 24.0712 14.0058 23.6923 13.5385 23.6923H11C10.0669 23.6923 9.30772 22.9331 9.30772 22C9.30772 21.0669 10.0669 20.3077 11 20.3077H13.5384C14.0058 20.3077 14.3846 19.9288 14.3846 19.4616V15.7949H29.6154V19.4616C29.6154 19.9288 29.9942 20.3077 30.4615 20.3077H33C33.9331 20.3077 34.6923 21.0669 34.6923 22C34.6923 22.9331 33.9331 23.6923 33 23.6923H30.4616Z" fill="#009B97"/>
<path d="M20.3077 9.58964H19.4616C18.5285 9.58964 17.7693 8.83047 17.7693 7.89736C17.7693 6.96425 18.5285 6.20508 19.4616 6.20508H20.3077C20.775 6.20508 21.1539 5.82618 21.1539 5.35894C21.1539 4.89169 20.775 4.5128 20.3077 4.5128H19.4616C17.5953 4.5128 16.0769 6.03114 16.0769 7.89744C16.0769 9.76375 17.5953 11.2821 19.4616 11.2821H20.3077C20.775 11.2821 21.1539 10.9032 21.1539 10.436C21.1539 9.96862 20.775 9.58964 20.3077 9.58964ZM20.3077 23.6922H19.4616C18.5285 23.6922 17.7693 22.9331 17.7693 22C17.7693 21.0668 18.5285 20.3077 19.4616 20.3077H20.3077C20.775 20.3077 21.1539 19.9288 21.1539 19.4615C21.1539 18.9943 20.775 18.6154 20.3077 18.6154H19.4616C17.5953 18.6154 16.0769 20.1337 16.0769 22C16.0769 23.8664 17.5953 25.3847 19.4616 25.3847H20.3077C20.775 25.3847 21.1539 25.0058 21.1539 24.5386C21.1539 24.0711 20.775 23.6922 20.3077 23.6922ZM20.3077 37.7948H19.4616C18.5285 37.7948 17.7693 37.0357 17.7693 36.1026C17.7693 35.1695 18.5285 34.4103 19.4616 34.4103H20.3077C20.775 34.4103 21.1539 34.0314 21.1539 33.5641C21.1539 33.0969 20.775 32.718 20.3077 32.718H19.4616C17.5953 32.718 16.0769 34.2363 16.0769 36.1026C16.0769 37.969 17.5953 39.4873 19.4616 39.4873H20.3077C20.775 39.4873 21.1539 39.1084 21.1539 38.6412C21.1539 38.1737 20.775 37.7948 20.3077 37.7948ZM43.1539 21.1538H38.9231C38.4557 21.1538 38.0769 21.5327 38.0769 22C38.0769 22.4672 38.4557 22.8461 38.9231 22.8461H43.1539C43.6212 22.8461 44 22.4672 44 22C44 21.5327 43.6212 21.1538 43.1539 21.1538ZM42.0317 13.8143C41.7013 13.484 41.1654 13.484 40.8351 13.8143L38.3248 16.3246C37.9943 16.6551 37.9943 17.1909 38.3248 17.5213C38.4033 17.6 38.4965 17.6624 38.5992 17.7049C38.7019 17.7475 38.8119 17.7693 38.9231 17.7692C39.1396 17.7692 39.3562 17.6865 39.5214 17.5213L42.0317 15.011C42.3621 14.6807 42.3621 14.1448 42.0317 13.8143ZM42.0317 28.9888L39.5214 26.4785C39.1909 26.1482 38.6551 26.1482 38.3248 26.4785C37.9943 26.8089 37.9943 27.3448 38.3248 27.6752L40.8351 30.1855C41.0004 30.3507 41.2169 30.4333 41.4334 30.4333C41.6499 30.4333 41.8665 30.3507 42.0317 30.1855C42.3621 29.8552 42.3622 29.3193 42.0317 28.9888ZM5.07693 21.1538H0.846141C0.378812 21.1538 0 21.5327 0 22C0 22.4672 0.378812 22.8461 0.846141 22.8461H5.07693C5.54426 22.8461 5.92307 22.4672 5.92307 22C5.92307 21.5327 5.54426 21.1538 5.07693 21.1538ZM5.67523 16.3246L3.16499 13.8144C2.83456 13.4842 2.29874 13.4842 1.9684 13.8144C1.63797 14.1448 1.63788 14.6807 1.9684 15.0111L4.47872 17.5214C4.5572 17.6001 4.65045 17.6624 4.75311 17.705C4.85577 17.7475 4.96581 17.7693 5.07693 17.7692C5.29349 17.7692 5.51005 17.6865 5.67523 17.5213C6.00566 17.1909 6.00574 16.6552 5.67523 16.3246ZM5.67523 26.4786C5.3448 26.1482 4.80906 26.1482 4.47863 26.4786L1.96831 28.9889C1.63788 29.3193 1.63788 29.8552 1.96831 30.1856C2.13357 30.3508 2.35013 30.4334 2.56661 30.4334C2.78309 30.4334 2.99973 30.3508 3.16491 30.1856L5.67523 27.6753C6.00566 27.3448 6.00566 26.8091 5.67523 26.4786ZM25.1367 4.76038C24.9794 4.60303 24.761 4.51245 24.5385 4.51245C24.316 4.51245 24.0976 4.60294 23.9403 4.76038C23.7822 4.91942 23.6931 5.13434 23.6924 5.35859C23.6929 5.58285 23.7821 5.79781 23.9403 5.95672C24.0976 6.11501 24.316 6.20473 24.5385 6.20473C24.761 6.20473 24.9794 6.11493 25.1367 5.95672C25.2949 5.7978 25.384 5.58285 25.3846 5.35859C25.3839 5.13435 25.2948 4.91943 25.1367 4.76038Z" fill="#009B97"/>
</g>
<defs>
<clipPath id="clip0_413_1904">
<rect width="44" height="44" fill="white"/>
</clipPath>
</defs>
</svg>

<svg width="44" height="44" fill="none" xmlns="http://www.w3.org/2000/svg"><g clip-path="url(#clip0_413_1904)" fill="#009B97"><path d="M33 25.385A3.388 3.388 0 0036.385 22 3.388 3.388 0 0033 18.615h-1.692v-7.333H33a3.389 3.389 0 003.385-3.385A3.388 3.388 0 0033 4.513h-1.692V.846A.846.846 0 0030.462 0H13.538a.846.846 0 00-.846.846v3.667H11a3.388 3.388 0 00-3.385 3.384A3.388 3.388 0 0011 11.282h1.692v7.333H11A3.389 3.389 0 007.615 22 3.388 3.388 0 0011 25.385h1.692v7.333H11a3.389 3.389 0 00-3.385 3.385A3.388 3.388 0 0011 39.487h1.692v3.667c0 .467.38.846.846.846h16.924a.846.846 0 00.846-.846v-3.667H33a3.388 3.388 0 003.385-3.384A3.389 3.389 0 0033 32.718h-1.692v-7.333H33zM11 9.59c-.933 0-1.692-.76-1.692-1.693S10.067 6.205 11 6.205h2.538a.846.846 0 00.847-.846V1.692h15.23v2.82h-2.538a.846.846 0 000 1.693H33c.933 0 1.692.76 1.692 1.692 0 .933-.759 1.693-1.692 1.693h-2.538a.846.846 0 00-.847.846v3.666h-15.23v-3.666a.846.846 0 00-.846-.846H11zm22 24.82c.933 0 1.692.76 1.692 1.693s-.759 1.692-1.692 1.692h-2.538a.846.846 0 00-.847.846v3.667h-15.23V38.64a.846.846 0 00-.846-.846H11a1.693 1.693 0 010-3.384h2.538a.846.846 0 00.847-.846v-3.666h15.23v3.666c0 .467.38.846.847.846H33zm-2.538-10.718a.846.846 0 00-.847.846v3.667h-15.23v-3.667a.846.846 0 00-.846-.846H11A1.694 1.694 0 019.308 22c0-.933.759-1.692 1.692-1.692h2.538a.846.846 0 00.847-.846v-3.667h15.23v3.667c0 .467.38.846.847.846H33c.933 0 1.692.759 1.692 1.692 0 .933-.759 1.692-1.692 1.692h-2.538z"/><path d="M20.308 9.59h-.846c-.933 0-1.693-.76-1.693-1.693s.76-1.692 1.693-1.692h.846a.846.846 0 000-1.692h-.846a3.389 3.389 0 00-3.385 3.384 3.389 3.389 0 003.385 3.385h.846a.846.846 0 000-1.692zm0 14.102h-.846A1.695 1.695 0 0117.769 22c0-.933.76-1.692 1.693-1.692h.846a.846.846 0 000-1.693h-.846A3.388 3.388 0 0016.077 22a3.389 3.389 0 003.385 3.385h.846a.846.846 0 000-1.693zm0 14.103h-.846c-.933 0-1.693-.76-1.693-1.692 0-.934.76-1.693 1.693-1.693h.846a.846.846 0 000-1.692h-.846a3.388 3.388 0 00-3.385 3.385 3.389 3.389 0 003.385 3.384h.846a.846.846 0 000-1.692zm22.846-16.641h-4.23a.846.846 0 100 1.692h4.23a.846.846 0 000-1.692zm-1.122-7.34a.846.846 0 00-1.197 0l-2.51 2.51a.846.846 0 101.196 1.197l2.51-2.51a.846.846 0 000-1.197zm0 15.175l-2.51-2.51a.846.846 0 00-1.197 1.196l2.51 2.51a.844.844 0 001.197 0 .846.846 0 000-1.196zM5.077 21.154H.847a.846.846 0 000 1.692h4.23a.846.846 0 000-1.692zm.598-4.83l-2.51-2.51a.847.847 0 00-1.197 1.197l2.51 2.51a.844.844 0 001.197 0 .846.846 0 000-1.196zm0 10.155a.846.846 0 00-1.196 0l-2.51 2.51a.846.846 0 001.196 1.197l2.51-2.51a.846.846 0 000-1.197zM25.137 4.76a.853.853 0 00-.599-.248c-.222 0-.44.09-.598.248a.852.852 0 00-.248.599.85.85 0 00.846.846.849.849 0 00.847-.846.855.855 0 00-.248-.599z"/></g><defs><clipPath id="clip0_413_1904"><path fill="#fff" d="M0 0h44v44H0z"/></clipPath></defs></svg>
